X: 143
T: The Parks of Eglinton, a Reel
C: attr. John French (1753-1803)
R: reel
B: "John French Collection", John French ed. p.14 #3
S: http://www.heallan.com/french.asp
Z: 2012 John Chambers <jc:trillian.mit.edu>
M: C
L: 1/8
K: Eb
c | BEGE DF-FA | GEBG (e2Ba) | geBG | AF-FA | GECD E2E |]
g | egbg a(ffg) | egbg eBGB | ceBG AF-FA | GEFD E2(Eg) |
    egbg a(ffg) | egbg eBGB | AcGB FGAc | Bedf e2e |]

%%sep 2 1 500
%%sep 1 1 500

